src/pos-icons/microsoft-windows.svg

<svg height="24" viewBox="0 0 24 24" width="24" xmlns="http://www.w3.org/2000/svg"><path d="m3 12v-5.25l6-1.32v6.48zm17-9v8.75l-10 .15v-6.69zm-17 10 6 .09v6.81l-6-1.15zm17 .25v8.75l-10-1.91v-6.99z"/></svg>

<?xml version="1.0" encoding="UTF-8"?><!DOCTYPE svg PUBLIC "-//W3C//DTD SVG 1.1//EN" "http://www.w3.org/Graphics/SVG/1.1/DTD/svg11.dtd"><svg xmlns="http://www.w3.org/2000/svg" xmlns:xlink="http://www.w3.org/1999/xlink" version="1.1" id="mdi-microsoft-windows" width="24" height="24" viewBox="0 0 24 24"><path d="M3,12V6.75L9,5.43V11.91L3,12M20,3V11.75L10,11.9V5.21L20,3M3,13L9,13.09V19.9L3,18.75V13M20,13.25V22L10,20.09V13.1L20,13.25Z" /></svg>
